dist/svg/u1F936_u1F3FE.svg

<?xml version="1.0" encoding="UTF-8"?><svg id="Layer_1" xmlns="http://www.w3.org/2000/svg" viewBox="0 0 40 40"><g><g><path d="M32.36485,23.17011c-.26594-7.88164-6.03752-14.08348-12.89121-13.8522-6.85365,.23128-12.19407,6.80805-11.9281,14.68969,.19685,5.83449,3.41219,10.39709,7.84881,12.28133,.2602,.11051,.48478,.27849,.68086,.48212,.61903,.64286,2.1227,1.19984,3.87998,1.19984,1.72624,0,3.20449-.54164,3.84235-1.16664,.1837-.18,.39749-.31957,.63635-.41493,4.8138-1.92181,8.14227-6.95728,7.93096-13.21921Z" style="fill:#956759;"/><ellipse cx="15.77267" cy="25.53702" rx="1.32137" ry="1.58564"/><ellipse cx="24.13772" cy="25.53702" rx="1.32137" ry="1.58564"/><ellipse cx="20.15445" cy="9.67832" rx="5.6743" ry="3.42515" style="fill:#ff9000;"/><path d="M10.31225,32.2614s-6.56163-2.29106-6.8241-7.36539c-.26247-5.07433,3.41205-7.56775,3.41205-7.56775,0,0-.48119-3.67451,4.1557-6.69287,2.13425-1.38927,4.11095-1.54599,5.62299-1.31045,3.064,.47729,4.61253,4.07813,2.62574,6.45901-.68418,.81989-1.79679,1.59037-3.56528,2.13424-7.27125,2.2362-9.50436,6.85733-5.42711,14.3432Z" style="fill:#d9d9d9;"/><path d="M29.86303,32.04864c-.13046,.0679,6.33421-2.08048,6.64409-7.17951,.30822-5.07175-3.41206-7.56774-3.41206-7.56774,0,0,.48119-3.67451-4.1557-6.69287-2.13425-1.38927-4.11095-1.54599-5.62299-1.31045-3.064,.47729-4.61253,4.07813-2.62574,6.45901,.68418,.81989,1.79679,1.59037,3.56528,2.13424,7.27125,2.2362,9.68438,6.67145,5.60713,14.15731Z" style="fill:#d9d9d9;"/><path d="M20.99107,33.5566c.40908,0,.72587,.20741,.62516,.42196-.20364,.43385-.74884,.74129-1.66103,.74129s-1.45739-.30745-1.66103-.74129c-.10071-.21455,.21608-.42196,.62516-.42196h2.07175Z" style="fill:#5c2f17;"/><path d="M15.53319,34.64828c-.01977,0-.04022-.00136-.06067-.00682-.15202-.03272-.24883-.18406-.21542-.3354,.54469-2.4869,2.14332-2.80458,2.21081-2.81686,.15339-.02727,.30064,.07499,.32859,.22769s-.07294,.29859-.22565,.32859c-.05317,.01091-1.30208,.28359-1.76156,2.38056-.02863,.13225-.14589,.22224-.2761,.22224Z" style="fill:#845b40;"/><path d="M15.04848,29.76855c-2.27285,0-4.12234-1.85018-4.12234-4.12303s1.8495-4.12303,4.12234-4.12303c2.27353,0,4.12303,1.85018,4.12303,4.12303s-1.8495,4.12303-4.12303,4.12303Zm0-7.58888c-1.91085,0-3.46517,1.55432-3.46517,3.46585s1.55432,3.46585,3.46517,3.46585,3.46585-1.55432,3.46585-3.46585-1.555-3.46585-3.46585-3.46585Z" style="fill:#fff;"/><path d="M24.8618,29.76855c-2.27353,0-4.12303-1.85018-4.12303-4.12303s1.8495-4.12303,4.12303-4.12303c2.27285,0,4.12234,1.85018,4.12234,4.12303s-1.8495,4.12303-4.12234,4.12303Zm0-7.58888c-1.91085,0-3.46585,1.55432-3.46585,3.46585s1.555,3.46585,3.46585,3.46585,3.46517-1.55432,3.46517-3.46585-1.55432-3.46585-3.46517-3.46585Z" style="fill:#fff;"/><path d="M19.04403,25.90594l-.40289-.51947c.46016-.35995,1.6034-.82215,2.63143,.00273l-.41039,.51265c-.87669-.7049-1.77996-.02591-1.81814,.00409Z" style="fill:#fff;"/></g><g><polygon points="19.8398 3.28766 32.52343 3.28766 27.60988 12.92296 19.8398 3.28766" style="fill:#f21d51;"/><path d="M6.54249,13.62433c0-1.19681,.53189-2.51369,1.38292-3.85476,5.48385-8.64155,18.34493-8.64155,23.82877,0,.85103,1.34106,1.38292,2.65795,1.38292,3.85476v1.286H6.54249v-1.286Z" style="fill:#f21d51;"/><rect x="3.96318" y="12.47942" width="32.38253" height="5.95959" rx="2.13428" ry="2.13428" style="fill:#e7e7e7;"/><circle cx="33.89198" cy="4.48284" r="2.45373" style="fill:#d5d5d5;"/></g></g><rect x="0" y="0" width="40" height="40" transform="translate(40 40) rotate(-180)" style="fill:none;"/></svg>

<svg id="Layer_1" data-name="Layer 1" xmlns="http://www.w3.org/2000/svg" viewBox="0 0 40 40"><defs><style>.cls-1{fill:#956759;}.cls-2{fill:#ff9000;}.cls-3{fill:#d9d9d9;}.cls-4{fill:#5c2f17;}.cls-5{fill:#845b40;}.cls-6{fill:#fff;}.cls-7{fill:#f21d51;}.cls-8{fill:#e7e7e7;}.cls-9{fill:#d5d5d5;}.cls-10{fill:none;}</style></defs><path class="cls-1" d="M32.365,23.17C32.1,15.288,26.327,9.087,19.474,9.318S7.28,16.126,7.546,24.008c.2,5.834,3.412,10.4,7.848,12.281a2.052,2.052,0,0,1,.681.482,5.813,5.813,0,0,0,3.88,1.2A5.91,5.91,0,0,0,23.8,36.8a1.923,1.923,0,0,1,.636-.415C29.248,34.468,32.576,29.432,32.365,23.17Z"/><ellipse cx="15.773" cy="25.537" rx="1.321" ry="1.586"/><ellipse cx="24.138" cy="25.537" rx="1.321" ry="1.586"/><ellipse class="cls-2" cx="20.154" cy="9.678" rx="5.674" ry="3.425"/><path class="cls-3" d="M10.312,32.261S3.751,29.97,3.488,24.9A8.837,8.837,0,0,1,6.9,17.328s-.481-3.674,4.156-6.693a7.864,7.864,0,0,1,5.623-1.31,4.015,4.015,0,0,1,2.626,6.459,7.263,7.263,0,0,1-3.566,2.134C8.468,20.154,6.235,24.776,10.312,32.261Z"/><path class="cls-3" d="M29.863,32.049c-.13.068,6.334-2.081,6.644-7.18A8.717,8.717,0,0,0,33.1,17.3s.481-3.674-4.156-6.692A7.865,7.865,0,0,0,23.316,9.3a4.014,4.014,0,0,0-2.625,6.459,7.254,7.254,0,0,0,3.565,2.134C31.527,20.128,33.94,24.563,29.863,32.049Z"/><path class="cls-4" d="M20.991,33.557c.409,0,.726.207.625.422-.2.433-.749.741-1.661.741s-1.457-.308-1.661-.741c-.1-.215.216-.422.625-.422Z"/><path class="cls-5" d="M15.533,34.648a.205.205,0,0,1-.06-.007.281.281,0,0,1-.216-.335c.545-2.487,2.143-2.8,2.211-2.817a.283.283,0,0,1,.1.556c-.053.011-1.3.284-1.762,2.381A.282.282,0,0,1,15.533,34.648Z"/><path class="cls-6" d="M15.048,29.769a4.124,4.124,0,1,1,4.124-4.123A4.129,4.129,0,0,1,15.048,29.769Zm0-7.589a3.466,3.466,0,1,0,3.466,3.466A3.469,3.469,0,0,0,15.048,22.18Z"/><path class="cls-6" d="M24.862,29.769a4.124,4.124,0,1,1,4.122-4.123A4.128,4.128,0,0,1,24.862,29.769Zm0-7.589a3.466,3.466,0,1,0,3.465,3.466A3.469,3.469,0,0,0,24.862,22.18Z"/><path class="cls-6" d="M19.044,25.906l-.4-.52a2.133,2.133,0,0,1,2.632,0l-.411.513A1.488,1.488,0,0,0,19.044,25.906Z"/><polygon class="cls-7" points="19.84 3.288 32.523 3.288 27.61 12.923 19.84 3.288"/><path class="cls-7" d="M6.542,13.624A7.529,7.529,0,0,1,7.925,9.77a14.192,14.192,0,0,1,23.829,0,7.529,7.529,0,0,1,1.383,3.854V14.91H6.542Z"/><rect class="cls-8" x="3.963" y="12.479" width="32.383" height="5.96" rx="2.134"/><circle class="cls-9" cx="33.892" cy="4.483" r="2.454"/><rect class="cls-10" width="40" height="40" transform="translate(40 40) rotate(-180)"/></svg>
